packages/ui-icons/svg/Line/folder.svg

<svg viewBox="0 0 1920 1920" version="1.1" xmlns="http://www.w3.org/2000/svg">
    <path d="M1807.05882,1637.70588 C1807.05882,1668.87765 1781.64706,1694.17647 1750.58824,1694.17647 L169.411765,1694.17647 C138.352941,1694.17647 112.941176,1668.87765 112.941176,1637.70588 L112.941176,225.941176 L703.849412,225.941176 L854.4,451.823529 L225.882353,451.823529 L225.882353,564.764706 L1807.05882,564.764706 L1807.05882,1637.70588 Z M990.268235,451.823529 L764.385882,113 L-5.68434189e-14,113 L-5.68434189e-14,1637.70588 C-5.68434189e-14,1731.10824 76.0094118,1807.11765 169.411765,1807.11765 L1750.58824,1807.11765 C1843.99059,1807.11765 1920,1731.10824 1920,1637.70588 L1920,451.823529 L990.268235,451.823529 Z" stroke="none" stroke-width="1" fill-rule="evenodd"/>
</svg>

<svg viewBox="0 0 1920 1920" version="1.1" xmlns="http://www.w3.org/2000/svg">
    <path d="M1807.059 1637.706c0 31.172-25.412 56.47-56.47 56.47H169.411c-31.06 0-56.47-25.298-56.47-56.47V225.94h590.907L854.4 451.824H225.882v112.94H1807.06v1072.942zM990.269 451.824L764.385 113H0v1524.706c0 93.402 76.01 169.412 169.412 169.412h1581.176c93.403 0 169.412-76.01 169.412-169.412V451.824H990.268z" stroke="none" stroke-width="1" fill-rule="evenodd"/>
</svg>
